src/img/starbase.svg

<svg width="548" height="67" viewBox="0 0 548 67" fill="none" xmlns="http://www.w3.org/2000/svg">
<mask id="mask0" style="mask-type:alpha" maskUnits="userSpaceOnUse" x="139" y="54" width="37" height="13">
<path d="M139.343 66.1775L157.416 54.7976L175.489 66.1775C163.441 63.7784 151.392 63.7784 139.343 66.1775Z" fill="white"/>
</mask>
<g mask="url(#mask0)">
<path fill-rule="evenodd" clip-rule="evenodd" d="M139.343 66.1775L157.416 54.7976L175.489 66.1775C163.441 63.7784 151.392 63.7784 139.343 66.1775Z" fill="#F3F7F9"/>
</g>
<path fill-rule="evenodd" clip-rule="evenodd" d="M278.128 66.1775H319.63C329.001 66.1775 335.472 60.8831 335.472 53.2153V42.4441C335.472 37.9713 332.794 34.6852 327.55 32.5854C332.236 30.3035 334.579 27.0175 334.579 22.727V13.4163C334.579 5.74859 328.108 0.454412 318.737 0.454412H278.128V66.1775ZM294.193 12.6863H314.721C317.287 12.6863 318.514 13.6902 318.514 15.7898V23.6401C318.514 26.1958 317.733 26.7436 314.721 26.7436H294.193V12.6863ZM294.193 38.4277H314.274C317.956 38.4277 319.406 38.7927 319.406 41.3487V50.8421C319.406 52.9417 318.179 53.9457 315.613 53.9457H294.193V38.4277ZM391.699 51.3899L396.943 66.1775H414.235L388.353 0.454412H369.61L343.727 66.1775H360.35L365.705 51.3899H391.699ZM387.349 38.9755H370.167L378.87 14.8769L387.349 38.9755ZM477.715 20.7191V13.051C477.715 5.38337 471.244 0.0891113 461.873 0.0891113H438.222C428.85 0.0891113 422.38 5.38337 422.38 13.051V24.1879C422.38 31.125 429.073 35.5978 438.445 37.3324L459.196 40.9837C461.873 41.4401 462.988 42.1704 462.988 44.0872V51.0246C462.988 53.1242 461.762 54.1281 459.196 54.1281H441.792C439.226 54.1281 437.998 53.1242 437.998 51.0246V45.1826H422.38V53.5806C422.38 61.2484 428.85 66.5425 438.222 66.5425H463.212C472.583 66.5425 479.054 61.2484 479.054 53.5806V41.7137C479.054 34.7764 472.36 30.3035 462.988 28.5693L442.238 24.9179C439.56 24.4615 438.445 23.7314 438.445 21.8144V15.607C438.445 13.5075 439.672 12.5035 442.238 12.5035H458.303C460.869 12.5035 462.096 13.5075 462.096 15.607V20.7191H477.715ZM495.454 66.1775H548V53.7631H511.519V38.7927H541.083V26.3783H511.519H495.454V66.1775ZM511.519 12.8686H548V0.454412H495.454V12.8686H511.519Z" fill="#F3F7F9"/>
<path fill-rule="evenodd" clip-rule="evenodd" d="M250.349 41.2573C257.042 39.7056 261.282 35.0503 261.282 28.8432V13.4163C261.282 5.74859 254.811 0.454412 245.44 0.454412H204.496V66.1775H220.561V41.8049H233.503L246.444 66.1775H263.736L250.349 41.2573ZM55.3355 20.7191V13.051C55.3355 5.38337 48.8649 0.0891113 39.4932 0.0891113H15.842C6.47065 0.0891113 6.10352e-05 5.38337 6.10352e-05 13.051V24.1879C6.10352e-05 31.125 6.69364 35.5978 16.065 37.3324L36.8158 40.9837C39.4932 41.4401 40.609 42.1704 40.609 44.0872V51.0246C40.609 53.1242 39.3818 54.1281 36.8158 54.1281H19.4119C16.8458 54.1281 15.6187 53.1242 15.6187 51.0246V45.1826H6.10352e-05V53.5806C6.10352e-05 61.2484 6.47065 66.5425 15.842 66.5425H40.8321C50.2034 66.5425 56.6741 61.2484 56.6741 53.5806V41.7137C56.6741 34.7764 49.9804 30.3035 40.609 28.5693L19.858 24.9179C17.1806 24.4615 16.065 23.7314 16.065 21.8144V15.607C16.065 13.5075 17.2922 12.5035 19.858 12.5035H35.9233C38.4894 12.5035 39.7165 13.5075 39.7165 15.607V20.7191H55.3355ZM123.947 0.454412H65.9338V12.6863H86.9076V66.1775H102.973V12.6863H123.947V0.454412ZM175.489 66.1775H192.782L166.899 0.454412H148.157L122.273 66.1775H138.897C145.089 49.078 151.24 31.9802 157.416 14.8769C163.433 31.9787 169.429 49.0859 175.489 66.1775ZM245.217 26.4697C245.217 28.5693 243.989 29.5733 241.424 29.5733H220.561V12.8686H241.424C243.989 12.8686 245.217 13.873 245.217 15.9723V26.4697Z" fill="#F3F7F9"/>
</svg>

<svg width="548" height="67" fill="none" xmlns="http://www.w3.org/2000/svg"><mask id="a" style="mask-type:alpha" maskUnits="userSpaceOnUse" x="139" y="54" width="37" height="13"><path d="m139.343 66.177 18.073-11.38 18.073 11.38c-12.048-2.399-24.097-2.399-36.146 0Z" fill="#fff"/></mask><g mask="url(#a)"><path fill-rule="evenodd" clip-rule="evenodd" d="m139.343 66.177 18.073-11.38 18.073 11.38c-12.048-2.399-24.097-2.399-36.146 0Z" fill="#F3F7F9"/></g><path fill-rule="evenodd" clip-rule="evenodd" d="M278.128 66.177h41.502c9.371 0 15.842-5.294 15.842-12.962v-10.77c0-4.474-2.678-7.76-7.922-9.86 4.686-2.282 7.029-5.568 7.029-9.858v-9.31c0-7.668-6.471-12.963-15.842-12.963h-40.609v65.723Zm16.065-53.49h20.528c2.566 0 3.793 1.003 3.793 3.103v7.85c0 2.556-.781 3.104-3.793 3.104h-20.528V12.686Zm0 25.74h20.081c3.682 0 5.132.366 5.132 2.922v9.493c0 2.1-1.227 3.104-3.793 3.104h-21.42V38.428Zm97.506 12.963 5.244 14.787h17.292L388.353.454H369.61l-25.883 65.724h16.623l5.355-14.788h25.994Zm-4.35-12.415h-17.182l8.703-24.098 8.479 24.098Zm90.366-18.256v-7.668c0-7.668-6.471-12.962-15.842-12.962h-23.651c-9.372 0-15.842 5.294-15.842 12.962v11.137c0 6.937 6.693 11.41 16.065 13.144l20.751 3.652c2.677.456 3.792 1.186 3.792 3.103v6.938c0 2.1-1.226 3.103-3.792 3.103h-17.404c-2.566 0-3.794-1.004-3.794-3.103v-5.842H422.38v8.398c0 7.667 6.47 12.962 15.842 12.962h24.99c9.371 0 15.842-5.295 15.842-12.962V41.714c0-6.938-6.694-11.41-16.066-13.145l-20.75-3.651c-2.678-.456-3.793-1.187-3.793-3.104v-6.207c0-2.1 1.227-3.103 3.793-3.103h16.065c2.566 0 3.793 1.004 3.793 3.103v5.112h15.619Zm17.739 45.459H548V53.762h-36.481v-14.97h29.564V26.378h-45.629v39.8Zm16.065-53.31H548V.455h-52.546V12.87h16.065Zm-261.17 28.389c6.693-1.551 10.933-6.207 10.933-12.414V13.416c0-7.667-6.471-12.962-15.842-12.962h-40.944v65.723h16.065V41.805h12.942l12.941 24.372h17.292l-13.387-24.92ZM55.336 20.72v-7.668C55.336 5.384 48.865.09 39.493.09H15.842C6.471.09 0 5.383 0 13.051v11.137c0 6.937 6.694 11.41 16.065 13.144l20.75 3.652c2.678.456 3.794 1.186 3.794 3.103v6.938c0 2.1-1.227 3.103-3.793 3.103H19.412c-2.566 0-3.793-1.004-3.793-3.103v-5.842H0v8.398c0 7.667 6.47 12.962 15.842 12.962h24.99c9.371 0 15.842-5.295 15.842-12.962V41.714c0-6.938-6.694-11.41-16.065-13.145l-20.751-3.651c-2.677-.456-3.793-1.187-3.793-3.104v-6.207c0-2.1 1.227-3.103 3.793-3.103h16.065c2.566 0 3.794 1.004 3.794 3.103v5.112h15.619ZM123.947.454H65.934v12.232h20.974v53.491h16.065v-53.49h20.974V.453Zm51.542 65.723h17.293L166.899.454h-18.742l-25.884 65.724h16.624c6.192-17.1 12.343-34.198 18.519-51.301 6.017 17.102 12.013 34.209 18.073 51.3Zm69.728-39.707c0 2.1-1.228 3.103-3.793 3.103h-20.863V12.87h20.863c2.565 0 3.793 1.004 3.793 3.103V26.47Z" fill="#F3F7F9"/></svg>
